X:1207
T:The Yellow-Haired Laddie
P:The Yellow-Haired Laddie
C:Orpheus Caledonius, 1725
R:Minuet (4x64)
B:RSCDS 12-7
Z:Anselm Lingnau <anselm@strathspey.org>
M:3/4
L:1/8
V:1
V:2
V:3 clef=bass
K:D
%%staves {(1 2) 3}
%%staffsep 40pt
[V:1] D>E|"D"F2 A2 Bc|d3 e  f2|A2 BA GF|"A"[E4C4] D>E|F2 A2 B>c   |
[V:2] x2 |   D6      |D6      |D4    D2|x6           |x4    [F2D2]|
[V:3] z2 | d'c' ba g2|f2 e2 d2|f2 d2 f2|   ab ag  fe |d2 z2 c2    |
%7
[V:1] dc     de f2    |AB AF  E>D|D4    D>E|F2   A2 Bc|d3 e  f2|
[V:2] [B2F2] z2 [c2A2]|D2 B,2 C2 |x6       |D6        |D6      |
[V:3] B2     z2 AG    |F2 G2  A2 |de fa bc'|d'c' ba g2|f2 e2 d2|
%12
[V:1] A2 BA GF|[E4C4] D>E|F2 A2 B>c   |dc     de f2    |A2 gf ed|[d4F4]||
[V:2] D4    D2|x6        |x4    [F2D2]|[B2F2] z2 [c2A2]|x2 B2 c2|x4    ||
[V:3] f2 d2 f2|ab ag  fe |d2 z2 c2    |B2     z2 AG    |F2 G2 A2|dB AG ||
%18
[V:1] d>e|f2    gf    ed    |c2    ec    BA|Bc    dB    AF|[E4C4] DE|F2 A2 Bc|
[V:2] A2 |[d2A2][d2A2][B2G2]|[A2E2][A2E2]C2|[F2D2][F2D2]D2|x6       |x4[F2D2]|
[V:3] FE |D2    F2    G2    |AB    c2    g2|fe    dG    FG|AB cg  fe|d2 z2 c2|
%24
[V:1] dc     de f2    |A>B AF  ED|D4    d>e|f2    gf    ed    |c2    ec    BA|
[V:2] [B2F2] z2 [c2A2]|D2  B,2 C2|x4    A2 |[d2A2][d2A2][B2G2]|[A2E2][A2E2]C2|
[V:3] B2     z2 AG    |F2  G2  A2|dB AG FE |D2    F2    G2    |AB    c2    g2|
%29
[V:1] Bc    dB    AF|[E4C4] DE|F2 A2 Bc    |dc    de f2    |A2 gf ed|[d4F4]|]
[V:2] [F2D2][F2D2]D2|x6       |x4    [F2D2]|[B2F2]z2 [c2A2]|x2 B2 c2|x4    |]
[V:3] fe    dG    FG|AB cg  fe|d2 z2 c2    |B2    z2 AG    |F2 G2 A2|d2 D2 |]

